packages/ui-icons/svg/Line/sort.svg

<svg viewBox="0 0 1920 1920" version="1.1" xmlns="http://www.w3.org/2000/svg">
    <path d="M1539.04532,215.441064 L1539.04532,1465.18083 L1838.25106,1165.97509 L1920,1247.83982 L1481.03368,1686.80614 L1042.18316,1247.83982 L1124.04788,1165.97509 L1423.25363,1465.18083 L1423.25363,215.441064 L1539.04532,215.441064 Z M438.966318,160 L877.932636,599.08211 L796.067907,680.831047 L496.862166,381.625305 L496.862166,1631.36508 L381.186262,1631.36508 L381.186262,381.625305 L81.9805205,680.831047 L0,599.08211 L438.966318,160 Z" stroke="none" stroke-width="1" fill-rule="evenodd"/>
</svg>

<svg viewBox="0 0 1920 1920" xmlns="http://www.w3.org/2000/svg">
    <path d="M1539.045 215.441v1249.74l299.206-299.206L1920 1247.84l-438.966 438.966-438.85-438.966 81.864-81.865 299.206 299.206V215.44h115.791ZM438.966 160l438.967 439.082-81.865 81.749-299.206-299.206v1249.74H381.186V381.625L81.981 680.831 0 599.082 438.966 160Z" fill-rule="evenodd"/>
</svg>
